X: 1390
T: Muntazırım Teşrifine
C: Tanburî Mustafa Çavuş
O: Turkey
F: http://compmusic.upf.edu/node/140
N: neva--sarki--aksak--muntazirim_tesrifine--tanburi_mustafa_cavus
N: makam= neva
N: form= sarki
N: usul= aksak = 9/8
M: 9/8
L: 1/16
K: C _2/4B ^3/4f  
Q: 1/4=144
%%MIDI tuningsystem comma53
d4 a4 g2f2 c'2b2 a2 | gf e2f2 g2ab agg4f^3/4e  | \
w:  Mun ta zı *  rım   |  teş *  *  ri *  fi *  *  *  ne   | 
f2z2 e2f2 g2=f2 e4 d2 | 
w:  *  ref tar_ i *  le   | 
d2 e2d2 c2c2 B2g6  | g2f4d2 e=fed d6 | \
w:  re *  vi *  şi  |  *  ne  a man  *  a *  man    | 
d4a4g2 f2c'2 b2a2  | 
w:  Mun ta zı *  rım   | 
gfe2 f2g2 abag g4 f^3/4e | f2 z2e2 f2g2 =f2e4d2  | \
w:  teş *  *  ri *  fi *  *  *  ne   |  *  ref tar_ i *  le   | 
d2e2 d2c2 c2B2 g6 | 
w:  re *  vi *  şi  | 
g2 f4 d2e=f edd6  | z4 B2^c2 d4 e=fe2 f2 | \
w:  *  ne  a man  *  a *  man    |  Bir  ben  mi yim   | 
ed ^cBc2 d2e=f edd6  | 
w:  â *  *  *  şık_ *  o *  *  *  lan   | 
z4 B2^c2 d2e2 =f2e2 d2 | c2 B2e2 d2c2 B2Bc B2A2  | \
w:  bül bül_ â *  şık   |  gü *  *  *  lü *  şü  | 
A6G2 B2c2 d6 | 
w:  ne  a man_ a man    | 
z2 d4 cBc2 B2g6  | z2f4d2 e2=f2 e2d2 ^c2 | \
w:  Yâr_ a *  man   |  â fet_ i *  dev  | 
d12z6  | z4 d2e2 =f2e2 d2c2 B2 | 
w:  ran   |  yak ma  has *  ret   | 
c2 B2e2 dcc2 B2Bc B2A2  | A8 z4 z6 | \
w:  â *  *  *  *  te *  şi  |  ne    | 
d4a4g2 f2c'2 b2a2  | 
w:  Mun ta zı *  rım   | 
gfe2 f2g2 abag g4 f^3/4e | f2 z2e2 f2g2 =f2e4d2  | \
w:  teş *  *  ri *  fi *  *  *  ne   |  *  ref tar_ i *  le   | 
d2e2 d2c2 c2B2 g6 | 
w:  re *  vi *  şi  | 
g2 f4 d2e=f edd6  | d4 a4 g2f2 c'2b2 a2 | \
w:  *  ne  a man  *  a *  man    |  Mun ta zı *  rım   | 
gf e2f2 g2ab agg4f^3/4e  | 
w:  teş *  *  ri *  fi *  *  *  ne   | 
f2z2 e2f2 g2=f2 e4 d2 | d2 e2d2 c2c2 B2g6  | \
w:  *  ref tar_ i *  le   |  re *  vi *  şi  | 
g2f4d2 e=fed d6 | 
w:  *  ne  a man  *  a *  man    | 
z4B2 ^c2d4e=f e2f2  | ed^cB c2d2 e=fed d6 | \
w:  Bir  ben  mi yim   |  â *  *  *  şık_ *  o *  *  *  lan   | 
z4B2 ^c2d2 e2=f2 e2d2  | 
w:  bül bül_ â *  şık   | 
c2B2 e2d2 c2B2 BcB2 A2 | A6 G2B2 c2d6  | \
w:  gü *  *  *  lü *  şü  |  ne  a man_ a man    | 
z2d4cB c2B2 g6 | 
w:  Yâr_ a *  man   | 
z2 f4 d2e2 =f2e2 d2^c2  | d12 z6 | z4d2 e2=f2 e2d2 c2B2  | \
w:  â fet_ i *  dev  |  ran   |  yak ma  has *  ret   | 
c2B2 e2dc c2B2 BcB2 A2 | 
w:  â *  *  *  *  te *  şi  | 
A8z4z6  | |


